X:1
T:We All Can Do Good
T:John Robson Sweney
T:We All Can Do Good
T:Public Domain
T:Public Domain
T:Public Domain
C:John Robson Sweney
Z:Public Domain
%%score ( 1 2 ) ( 3 4 )
L:1/8
M:6/8
K:E
V:1 treble 
V:2 treble 
V:3 bass 
V:4 bass 
V:1
 (E/F/) | [EG][EG][EG] [EG][EF]E | [GB]>[GB][GB] [GB]2 [EB] | [Ec][EB][DA] [EG][FA][EG] | %4
w: 1.~Our *|we are told, are but fleet-|at best, Like ros- es|they fade and de- cay; Then|
w: 2.~A *|or a smile, that in kind-|we give, May com- fort|a de- so- late heart; May|
w: 3.~How *|ny a- round us are stran-|to God, How ma- ny|poor child- ren we see; If|
w: 4.~We *|can do good, and we all|be- stow Some gift for|the sake of the Lord; If|
 [D-F]3 [DB]2 [DA] | [EG][EG][EG] [EG][EF]E | [GB]>[GB][GB] [GB]2 [Ge] | %7
w: let * us|do good while the pre- sent|ours, Be use- ful as|
w: sweet- * en|a life that is lone- ly|sad, And hope to the|
w: such * we|could bring to the foot of|cross, How grate- ful and|
w: on- * ly|a cup of cold wa- ter|give, Our souls will not|
 [Bd][Ac][GB] [FA][EG][DF] | E3- =E2 ||"^Refrain" [EB] | [Ec][Ec][Ec] [Ec]<[EB][Ge] | %11
w: long as we stay. * *||||
w: wear- y im- part. Do good|un- *|thers,|do good while we can, Our|
w: glad we should be. * *||||
w: lose their re- ward. * *||||
 [Ad][Ac][Ad] [Ge]2 [EB] | [Ec][EB][DA] [EG][B,F][CE] | DFE [DB]2 |] %14
w: |||
w: mo- ments how quick- ly|they fly; * * * *||
w: |||
w: |||
V:2
 E | x5 E | x6 | x6 | x6 | x5 E | x6 | x6 | E3 =E2 || x | x6 | x6 | x6 | B3- x2 |] %14
w: lives,|ing||||is|||||||||
w: look|ness||||and|||to o-||||||
w: ma-|gers||||the|||||||||
w: all|can||||we|||||||||
V:3
 (G,/A,/) | [E,B,][E,B,][E,B,] [E,B,][E,A,][E,G,] | [E,E]>[E,E][E,E] [E,E]2 [G,B,] | %3
w: ~ *|~ ~ ~ ~ ~ ~|~ ~ ~ ~ ~|
 A,[G,B,][F,B,] [E,B,][E,B,][E,B,] | [B,,-B,]3 [B,,F,]2 [B,,B,] | %5
w: ~ ~ ~ ~ ~ ~|mem- ber the|
 [E,B,][E,B,][E,B,] [E,B,][E,A,][E,G,] | [E,E]>[E,E][E,E] [E,E]2 [E,B,] | %7
w: pro- verb, re- mem- ber it|now, We all can do|
 B,B,B, [B,,B,][B,,B,][B,,A,] | [E,G,]3- [E,G,]2 || [G,B,] | A,A,A, A,<[G,B,][E,B,] | %11
w: good if we try. * *||||
 [B,,B,][B,,B,][B,,B,] [E,B,]2 [G,B,] | A,[G,B,][F,B,] [E,B,][D,B,][C,^A,] | B,A,G, [B,,F,]2 |] %14
w: |||
V:4
 E, | x6 | x6 | A, x5 | x6 | x6 | x6 | B,B,B, x3 | x5 || x | A,A,A, A,/ x5/2 | x6 | ^A, x5 | %13
w: ~|||Re-||||||||||
 B,,3- x2 |] %14
w: |

